src/assets/duotone/Archive2.svg

<?xml version="1.0" encoding="UTF-8"?>
<svg width="24" height="24" viewBox="0 0 24 24" xmlns="http://www.w3.org/2000/svg">
 <path d="m16.19 2h-8.37c-3.64 0-5.81 2.17-5.81 5.81v8.37c0 3.64 2.17 5.81 5.81 5.81h8.37c3.64 0 5.81-2.17 5.81-5.81v-8.37c0-3.64-2.17-5.81-5.81-5.81z" opacity=".4"/>
 <path d="m19 15h-0.25v-7.25c0-1.52-1.23-2.75-2.75-2.75h-8c-1.52 0-2.75 1.23-2.75 2.75v7.25h-0.25c-0.41 0-0.75 0.34-0.75 0.75s0.34 0.75 0.75 0.75h3.84c0.34 1.43 1.63 2.5 3.16 2.5s2.82-1.07 3.16-2.5h3.84c0.41 0 0.75-0.34 0.75-0.75s-0.34-0.75-0.75-0.75zm-2.21-3.12c-0.06-0.02-0.12-0.04-0.19-0.06-0.2-0.04-0.4-0.07-0.61-0.07h-8c-0.21 0-0.40999 0.03-0.60999 0.07-0.06 0.01-0.12 0.04-0.19 0.06-0.13 0.04-0.26 0.08-0.38 0.14-0.03 0.01-0.06002 0.02-0.08002 0.03v-1.05c0-0.69 0.56-1.25 1.25-1.25h8c0.69 0 1.25 0.56 1.25 1.25v1.05c-0.03-0.01-0.05-0.02-0.08-0.03-0.1-0.06-0.23-0.1-0.36-0.14zm-8.79-5.38h8c0.69 0 1.25 0.56 1.25 1.25v0.81c-0.38-0.19-0.8-0.31-1.25-0.31h-8c-0.45 0-0.87 0.12-1.25 0.31v-0.81c0-0.69 0.56-1.25 1.25-1.25zm6.5 8.5c-0.41 0-0.75 0.34-0.75 0.75 0 0.96-0.79 1.75-1.75 1.75s-1.75-0.79-1.75-1.75c0-0.41-0.34-0.75-0.75-0.75h-2.75v-0.5c0-0.69 0.56-1.25 1.25-1.25h8c0.69 0 1.25 0.56 1.25 1.25v0.5h-2.75z"/>
</svg>

<svg width="24" height="24" viewBox="0 0 24 24"  xmlns="http://www.w3.org/2000/svg">
<path opacity="0.4" d="M16.1898 2H7.81976C4.17976 2 2.00977 4.17 2.00977 7.81V16.18C2.00977 19.82 4.17976 21.99 7.81976 21.99H16.1898C19.8298 21.99 21.9998 19.82 21.9998 16.18V7.81C21.9998 4.17 19.8298 2 16.1898 2Z" />
<path d="M19 15H18.75V14.5V14V11V7.75C18.75 6.23 17.52 5 16 5H8C6.48 5 5.25 6.23 5.25 7.75V11V14V14.5V15H5C4.59 15 4.25 15.34 4.25 15.75C4.25 16.16 4.59 16.5 5 16.5H6H8.84003C9.18003 17.93 10.47 19 12 19C13.53 19 14.82 17.93 15.16 16.5H18H19C19.41 16.5 19.75 16.16 19.75 15.75C19.75 15.34 19.41 15 19 15ZM16.79 11.88C16.73 11.86 16.67 11.84 16.6 11.82C16.4 11.78 16.2 11.75 15.99 11.75H7.98999C7.77999 11.75 7.58 11.78 7.38 11.82C7.32 11.83 7.26 11.86 7.19 11.88C7.06 11.92 6.93 11.96 6.81 12.02C6.78 12.03 6.74998 12.04 6.72998 12.05V11C6.72998 10.31 7.28998 9.75 7.97998 9.75H15.98C16.67 9.75 17.23 10.31 17.23 11V12.05C17.2 12.04 17.18 12.03 17.15 12.02C17.05 11.96 16.92 11.92 16.79 11.88ZM8 6.5H16C16.69 6.5 17.25 7.06 17.25 7.75V8.56C16.87 8.37 16.45 8.25 16 8.25H8C7.55 8.25 7.13 8.37 6.75 8.56V7.75C6.75 7.06 7.31 6.5 8 6.5ZM14.5 15C14.09 15 13.75 15.34 13.75 15.75C13.75 16.71 12.96 17.5 12 17.5C11.04 17.5 10.25 16.71 10.25 15.75C10.25 15.34 9.91 15 9.5 15H6.75V14.5C6.75 13.81 7.31 13.25 8 13.25H16C16.69 13.25 17.25 13.81 17.25 14.5V15H14.5Z" />
</svg>
